X:309
T:B309-  The (Merry) Milkmaids, or Milking Pail
S:(1st/2)
Q:1/4=120
L:1/4
M:6/4
K:F
F|F3/2G/FC2c|(A3A2)F|F3/2G/FC2_E|(D3D2)B,|\
B,3/2C/ D/E/F2D|G3/2A/ E/D/C2c|A3/2B/cG2F|(F3F2)||F|\
A3/2B/cc3/2d/c|A3/2B/cc3/2B/A|B2cd2e|(f3f2)c|\
f2cA3/2B/c|d2BG3/2A/B|c2AF3/2G/A|G2EC3/2D/E|\
F3D3/2E/F|G3E3/2D/C|F3/2G/AG2F|(F3F2)|]

